app/luts/cinematic/bleach_bypass.cube
TITLE "BleachBypass"
LUT_3D_SIZE 2

0.0 0.0 0.0
0.2 0.2 0.2
0.3 0.8 0.3
0.4 0.9 0.4
0.7 0.7 0.7
0.8 0.8 0.8
0.9 0.9 0.9
1.0 1.0 1.0