app/luts/cinematic/blockbuster.cube
TITLE "Blockbuster"
LUT_3D_SIZE 2

0.0 0.1 0.2
0.0 0.2 0.7
0.2 0.8 0.5
0.4 1.0 0.8
0.9 0.3 0.3
1.0 0.4 0.6
0.9 0.9 0.6
1.0 1.0 1.0