app/luts/cinematic/matrix.cube
TITLE "Matrix"
LUT_3D_SIZE 2

0.0 0.2 0.0
0.0 0.4 0.0
0.2 0.8 0.2
0.4 1.0 0.4
0.2 0.6 0.2
0.3 0.7 0.3
0.6 1.0 0.6
0.8 1.0 0.8