app/luts/cinematic/teal_orange.cube
TITLE "TealOrange"
LUT_3D_SIZE 2

0.0 0.2 0.3
0.0 0.4 0.8
0.1 0.9 0.6
0.3 1.0 0.9
0.9 0.5 0.2
1.0 0.6 0.4
0.9 1.0 0.6
1.0 1.0 0.8