app/luts/instagram/clarendon.cube
TITLE "Clarendon"
LUT_3D_SIZE 2

0.0 0.0 0.0
0.1 0.1 0.6
0.0 0.8 0.4
0.1 0.9 0.7
0.8 0.2 0.2
0.9 0.3 0.6
0.8 0.9 0.5
1.0 1.0 1.0