app/luts/instagram/gingham.cube
TITLE "Gingham"
LUT_3D_SIZE 2

0.0 0.0 0.0
0.2 0.2 0.6
0.3 0.8 0.4
0.4 0.9 0.7
0.7 0.3 0.3
0.8 0.4 0.6
0.7 0.8 0.6
1.0 1.0 1.0