app/luts/instagram/lark.cube
TITLE "Lark"
LUT_3D_SIZE 2

0.0 0.0 0.0
0.2 0.2 0.7
0.1 0.9 0.5
0.3 1.0 0.8
0.9 0.4 0.3
1.0 0.5 0.7
0.9 1.0 0.6
1.0 1.0 1.0