app/luts/instagram/reyes.cube
TITLE "Reyes"
LUT_3D_SIZE 2

0.0 0.0 0.0
0.2 0.2 0.5
0.3 0.7 0.4
0.4 0.8 0.7
0.7 0.3 0.2
0.8 0.4 0.6
0.7 0.8 0.5
1.0 1.0 1.0